svgs/regular/square-phone.svg

<svg xmlns="http://www.w3.org/2000/svg" viewBox="0 0 448 512"><!--! Font Awesome Pro 6.0.0-alpha3 by @fontawesome - https://fontawesome.com License - https://fontawesome.com/license (Commercial License) --><path d="M342.5 303.6l-54.24-23.25c-6.391-2.766-13.9-.9062-18.24 4.484l-22.02 26.91c-34.63-17-62.77-45.14-79.77-79.75l26.91-22.05c5.375-4.391 7.211-11.83 4.492-18.22L176.4 137.5C173.4 130.5 165.8 126.7 158.5 128.4L108.1 140c-7.125 1.625-12.11 7.891-12.11 15.22c0 126.1 102.6 228.8 228.7 228.8c7.336 0 13.6-4.984 15.24-12.11l11.62-50.39C353.3 314.2 349.5 306.6 342.5 303.6zM384 32H64C28.65 32 0 60.66 0 96v320c0 35.34 28.65 64 64 64h320c35.35 0 64-28.66 64-64V96C448 60.66 419.3 32 384 32zM400 416c0 8.82-7.178 16-16 16H64c-8.822 0-16-7.18-16-16V96c0-8.82 7.178-16 16-16h320c8.822 0 16 7.18 16 16V416z"/></svg>

<svg xmlns="http://www.w3.org/2000/svg" viewBox="0 0 448 512"><!-- Font Awesome Pro 6.0.0-alpha2 by @fontawesome - https://fontawesome.com License - https://fontawesome.com/license (Commercial License) --><path d="M342.549 303.627L288.305 280.377C281.914 277.611 274.406 279.471 270.062 284.861L248.039 311.768C213.414 294.768 185.266 266.627 168.273 232.018L195.188 209.969C200.563 205.578 202.398 198.141 199.68 191.75L176.414 137.469C173.367 130.516 165.828 126.703 158.484 128.406L108.107 140.031C100.982 141.656 95.998 147.922 95.998 155.25C95.998 281.393 198.617 384.002 324.742 384.002C332.078 384.002 338.346 379.018 339.979 371.893L351.604 321.502C353.291 314.205 349.502 306.627 342.549 303.627ZM384 32H64C28.654 32 0 60.656 0 96V416C0 451.344 28.654 480 64 480H384C419.346 480 448 451.344 448 416V96C448 60.656 419.346 32 384 32ZM400 416C400 424.82 392.822 432 384 432H64C55.178 432 48 424.82 48 416V96C48 87.18 55.178 80 64 80H384C392.822 80 400 87.18 400 96V416Z"/></svg>
